pro/src/icons/full-edit.svg

<svg width="48" height="48" viewBox="0 0 48 48" fill="none" xmlns="http://www.w3.org/2000/svg">
<path id="icon" fill="currentColor" fill-rule="evenodd" clip-rule="evenodd" d="M36.4219 6C34.9917 6 33.5616 6.54735 32.4666 7.63088L30.967 9.13019C32.5289 9.63933 34.5618 10.516 36.0759 12.114C37.4974 13.6142 38.3978 15.5323 38.9388 16.944L40.3659 15.5172C42.5447 13.3389 42.5447 9.79793 40.3659 7.61971C39.2822 6.54735 37.852 6 36.4219 6ZM37.3674 18.5222C36.9149 17.1891 36.1214 15.0793 34.619 13.4938C33.0858 11.8757 30.8767 11.1709 29.3571 10.749C29.3548 10.7519 29.3525 10.7548 29.3502 10.7577L9.22681 30.8763L9.33728 30.9577C9.28557 31.0332 9.24363 31.1168 9.21359 31.2068L6.05163 40.6792C5.9313 41.0397 6.02505 41.4373 6.29379 41.706C6.56253 41.9748 6.96011 42.0687 7.32073 41.9485L16.8066 38.7873C16.8969 38.7572 16.9807 38.7151 17.0564 38.6632L17.1373 38.7738L37.3492 18.5554L37.3674 18.5222ZM15.2512 37.0315C15.2708 37.0804 15.2889 37.1275 15.3054 37.1727L10.4059 38.8055C10.3547 38.6839 10.2904 38.5569 10.2098 38.4275C9.98994 38.075 9.67418 37.7446 9.23988 37.4658L10.8296 32.7034C10.8754 32.72 10.9231 32.7381 10.9727 32.7578C11.5742 32.9975 12.4678 33.4911 13.4893 34.5124C14.5115 35.5344 15.0086 36.4288 15.2512 37.0315Z" />
</svg>

<svg xmlns="http://www.w3.org/2000/svg" width="48" height="48" fill="none"><path id="icon" fill="currentColor" fill-rule="evenodd" d="M36.422 6c-1.43 0-2.86.547-3.955 1.63l-1.5 1.5c1.562.51 3.595 1.386 5.109 2.984 1.421 1.5 2.322 3.418 2.863 4.83l1.427-1.427a5.59 5.59 0 0 0 0-7.897A5.6 5.6 0 0 0 36.422 6m.945 12.522c-.452-1.333-1.246-3.443-2.748-5.028-1.533-1.618-3.742-2.323-5.262-2.745l-.007.009L9.227 30.876l.11.082q-.077.113-.123.249l-3.162 9.472a1.003 1.003 0 0 0 1.269 1.27l9.486-3.162q.136-.046.25-.124l.08.11L37.35 18.556zm-22.116 18.51q.03.073.054.14l-4.9 1.634a3 3 0 0 0-.195-.378 3.1 3.1 0 0 0-.97-.962l1.59-4.763.143.055c.601.24 1.495.733 2.516 1.754 1.022 1.022 1.52 1.917 1.762 2.52" clip-rule="evenodd"/></svg>
